build/category/ClipboardOutline.svg

<svg xmlns="http://www.w3.org/2000/svg" fill="none" viewBox="0 0 24 24" focusable="false"><path d="M0 0H24V24H0z"/><path fill="#74767B" fill-rule="evenodd" d="M10 4.30005C10 4.54629 10.0445 4.78215 10.1259 5L8 5C6.34315 5 5 6.34315 5 8L5 18C5 19.6569 6.34315 21 8 21L16 21C17.6569 21 19 19.6569 19 18L19 8C19 6.34315 17.6569 5 16 5L13.8741 5C13.9555 4.78215 14 4.54629 14 4.30005C14 3.19548 13.1046 2.30005 12 2.30005C10.8954 2.30005 10 3.19548 10 4.30005ZM11.3 4.30005C11.3 4.68386 11.6089 4.99552 11.9916 5L12.0084 5C12.3911 4.99552 12.7 4.68386 12.7 4.30005C12.7 3.91345 12.3866 3.60005 12 3.60005C11.6134 3.60005 11.3 3.91345 11.3 4.30005ZM8.02643 6.3L8 6.3C7.06112 6.3 6.3 7.06112 6.3 8L6.3 18C6.3 18.9389 7.06112 19.7 8 19.7L16 19.7C16.9389 19.7 17.7 18.9389 17.7 18L17.7 8C17.7 7.06112 16.9389 6.3 16 6.3L15.9736 6.3C15.778 7.76774 14.5212 8.9 13 8.9L11 8.9C9.47877 8.9 8.22199 7.76774 8.02643 6.3ZM9.34733 6.3L11.9859 6.3L12 6.30005L12.0141 6.3L14.6527 6.3C14.4728 7.04587 13.8011 7.6 13 7.6L11 7.6C10.1989 7.6 9.52721 7.04587 9.34733 6.3ZM14.4785 12.4399C14.7215 12.1756 14.7042 11.7645 14.4399 11.5215C14.1756 11.2785 13.7645 11.2958 13.5215 11.5601L11.4826 13.7778L10.4596 12.7548C10.2058 12.5009 9.79422 12.5009 9.54038 12.7548C9.28654 13.0086 9.28654 13.4202 9.54038 13.674L10.8215 14.9551C11.2036 15.3372 11.8269 15.3241 12.1926 14.9263L14.4785 12.4399Z"/></svg>

<svg xmlns="http://www.w3.org/2000/svg" fill="none" viewBox="0 0 24 24" focusable="false"><path fill="#74767B" fill-rule="evenodd" d="M10 4.3c0 .24.04.48.12.7H8C6.34 5 5 6.34 5 8v10c0 1.65 1.34 3 3 3h8c1.65 0 3-1.35 3-3V8c0-1.66-1.35-3-3-3h-2.13c.08-.22.13-.46.13-.7a2 2 0 0 0-2-2c-1.11 0-2 .89-2 2m1.29 0c0 .38.31.69.7.7H12c.39-.01.7-.32.7-.7 0-.39-.32-.7-.7-.7-.39 0-.71.31-.71.7M8.02 6.29H8c-.94 0-1.71.77-1.71 1.71v10c0 .93.77 1.7 1.71 1.7h8c.93 0 1.7-.77 1.7-1.7V8c0-.94-.77-1.71-1.7-1.71h-.03C15.77 7.76 14.52 8.9 13 8.9h-2a3.01 3.01 0 0 1-2.98-2.61m1.32 0h2.64l.02.01.01-.01h2.64c-.18.75-.85 1.3-1.65 1.3h-2c-.81 0-1.48-.55-1.66-1.3m5.09 5.23c.27.24.29.65.04.91l-2.28 2.49c-.37.4-.99.41-1.37.03l-1.28-1.28a.64.64 0 0 1 0-.92c.25-.25.66-.25.91 0l1.03 1.02 2.04-2.21c.24-.27.65-.29.91-.04"/></svg>
